flags/ms.svg

<svg width="512" height="512" viewBox="0 0 512 512" fill="none" xmlns="http://www.w3.org/2000/svg">
<rect width="512" height="512" fill="var(--flag-palette-navy, #002266)"/>
<rect width="256" height="256" fill="var(--flag-palette-navy, #002266)"/>
<path d="M232 256H256V232L152 128L256 24V0H232L128 104L24 0H0V24L104 128L0 232V256H24L128 152L232 256Z" fill="var(--flag-palette-white, #eeeeee)"/>
<path d="M256 160V96H160V0H96V96H0V160H96V256H160V160H256Z" fill="var(--flag-palette-white, #eeeeee)"/>
<path d="M256 144V112H144V0H112V112H0V144H112V256H144V144H256Z" fill="var(--flag-palette-bright-red, #d80027)"/>
<path d="M0 16V0L96 96H80L0 16Z" fill="var(--flag-palette-bright-red, #d80027)"/>
<path d="M256 240L256 256L160 160L176 160L256 240Z" fill="var(--flag-palette-bright-red, #d80027)"/>
<path d="M16 256L0 256L96 160L96 176L16 256Z" fill="var(--flag-palette-bright-red, #d80027)"/>
<path d="M240 -6.99382e-07L256 0L160 96L160 80L240 -6.99382e-07Z" fill="var(--flag-palette-bright-red, #d80027)"/>
<path d="M306.09 155.818V278.262C306.09 337.907 384.009 356.182 384.009 356.182C384.009 356.182 461.928 337.907 461.928 278.262V155.818H306.09Z" fill="var(--flag-palette-light-blue, #338af3)"/>
<path d="M306.09 278.262C306.09 337.906 384.009 356.182 384.009 356.182C384.009 356.182 461.928 337.906 461.928 278.262H306.09Z" fill="var(--flag-palette-dark-red, #a2001d)"/>
<path d="M417.404 211.477H395.14V189.213H372.877V211.477H350.615V233.738H372.877V300.526H395.14V233.738H417.404V211.477Z" fill="var(--flag-palette-black, #333333)"/>
</svg>

<svg xmlns="http://www.w3.org/2000/svg" width="512" height="512" fill="none"><path fill="#026" d="M0 0h512v512H0z"/><path fill="#026" d="M0 0h256v256H0z"/><path fill="#EEE" d="M232 256h24v-24L152 128 256 24V0h-24L128 104 24 0H0v24l104 104L0 232v24h24l104-104z"/><path fill="#EEE" d="M256 160V96h-96V0H96v96H0v64h96v96h64v-96z"/><path fill="var(--flag-palette-bright-red, #d80027)" d="M256 144v-32H144V0h-32v112H0v32h112v112h32V144z"/><path fill="var(--flag-palette-bright-red, #d80027)" d="M0 16V0l96 96H80zm256 224v16l-96-96h16zM16 256H0l96-96v16zM240 0h16l-96 96V80z"/><path fill="var(--flag-palette-light-blue, #338af3)" d="M306 155.8v122.5c0 59.6 78 77.9 78 77.9s78-18.3 78-78V155.9z"/><path fill="var(--flag-palette-dark-red, #a2001d)" d="M306 278.3c0 59.6 78 77.9 78 77.9s78-18.3 78-78z"/><path fill="#333" d="M417.4 211.5h-22.3v-22.3H373v22.3h-22.3v22.2H373v66.8h22v-66.8h22.3z"/></svg>
